frontend/src/assets/logout.svg

<svg width="472" height="472" viewBox="0 0 472 472" fill="none" xmlns="http://www.w3.org/2000/svg">
<g clip-path="url(#clip0_100:2)">
<path d="M227.619 444.2H104.719C71.319 444.2 44.219 417 44.219 383.7V87.5C44.219 54.1 71.419 27 104.719 27H229.619C237.119 27 243.119 21 243.119 13.5C243.119 6 237.119 0 229.619 0H104.719C56.419 0 17.219 39.3 17.219 87.5V383.7C17.219 432 56.519 471.2 104.719 471.2H227.619C235.119 471.2 241.119 465.2 241.119 457.7C241.119 450.2 235.019 444.2 227.619 444.2Z" fill="#E9E9E9"/>
<path d="M450.019 226.1L364.219 140.3C358.919 135 350.419 135 345.119 140.3C339.819 145.6 339.819 154.1 345.119 159.4L407.919 222.2H134.019C126.519 222.2 120.519 228.2 120.519 235.7C120.519 243.2 126.519 249.2 134.019 249.2H407.919L345.119 312C339.819 317.3 339.819 325.8 345.119 331.1C347.719 333.7 351.219 335.1 354.619 335.1C358.019 335.1 361.519 333.8 364.119 331.1L449.919 245.3C455.319 239.9 455.319 231.3 450.019 226.1Z" fill="#E9E9E9"/>
</g>
<defs>
<clipPath id="clip0_100:2">
<rect width="471.2" height="471.2" fill="white"/>
</clipPath>
</defs>
</svg>

<?xml version="1.0" encoding="UTF-8" standalone="no"?>
<!-- Generator: Adobe Illustrator 19.1.0, SVG Export Plug-In . SVG Version: 6.00 Build 0)  -->

<svg
   xmlnsDc="http://purl.org/dc/elements/1.1/"
   xmlnsCc="http://creativecommons.org/ns#"
   xmlnsRdf="http://www.w3.org/1999/02/22-rdf-syntax-ns#"
   xmlnsSvg="http://www.w3.org/2000/svg"
   xmlns="http://www.w3.org/2000/svg"
   xmlnsSodipodi="http://sodipodi.sourceforge.net/DTD/sodipodi-0.dtd"
   xmlnsInkscape="http://www.inkscape.org/namespaces/inkscape"
   version="1.1"
   id="Capa_1"
   x="0px"
   y="0px"
   viewBox="0 0 471.2 471.2"
   style="enable-background:new 0 0 471.2 471.2;"
   xmlSpace="preserve"
   sodipodiDocname="126467.svg"
   inkscapeVersion="0.92.4 (5da689c313, 2019-01-14)"><metadata
   id="metadata45"><rdfRDF><ccWork
       rdfAbout=""><dcFormat>image/svg+xml</dcFormat><dcType
         rdfResource="http://purl.org/dc/dcmitype/StillImage" /></ccWork></rdfRDF></metadata><defs
   id="defs43" /><sodipodiNamedview
   pagecolor="#ffffff"
   bordercolor="#666666"
   borderopacity="1"
   objecttolerance="10"
   gridtolerance="10"
   guidetolerance="10"
   inkscapePageopacity="0"
   inkscapePageshadow="2"
   inkscapeWindow-width="716"
   inkscapeWindow-height="480"
   id="namedview41"
   showgrid="false"
   inkscapeZoom="0.50084888"
   inkscapeCx="235.60001"
   inkscapeCy="235.60001"
   inkscapeWindow-x="0"
   inkscapeWindow-y="0"
   inkscapeWindow-maximized="0"
   inkscapeCurrent-layer="Capa_1" />
<g
   id="g8"
   style="fill:#e9e9e9;fill-opacity:1">
	<g
   id="g6"
   style="fill:#e9e9e9;fill-opacity:1">
		<path
   d="M227.619,444.2h-122.9c-33.4,0-60.5-27.2-60.5-60.5V87.5c0-33.4,27.2-60.5,60.5-60.5h124.9c7.5,0,13.5-6,13.5-13.5    s-6-13.5-13.5-13.5h-124.9c-48.3,0-87.5,39.3-87.5,87.5v296.2c0,48.3,39.3,87.5,87.5,87.5h122.9c7.5,0,13.5-6,13.5-13.5    S235.019,444.2,227.619,444.2z"
   id="path2"
   style="fill:#e9e9e9;fill-opacity:1" />
		<path
   d="M450.019,226.1l-85.8-85.8c-5.3-5.3-13.8-5.3-19.1,0c-5.3,5.3-5.3,13.8,0,19.1l62.8,62.8h-273.9c-7.5,0-13.5,6-13.5,13.5    s6,13.5,13.5,13.5h273.9l-62.8,62.8c-5.3,5.3-5.3,13.8,0,19.1c2.6,2.6,6.1,4,9.5,4s6.9-1.3,9.5-4l85.8-85.8    C455.319,239.9,455.319,231.3,450.019,226.1z"
   id="path4"
   style="fill:#e9e9e9;fill-opacity:1" />
	</g>
</g>
<g
   id="g10">
</g>
<g
   id="g12">
</g>
<g
   id="g14">
</g>
<g
   id="g16">
</g>
<g
   id="g18">
</g>
<g
   id="g20">
</g>
<g
   id="g22">
</g>
<g
   id="g24">
</g>
<g
   id="g26">
</g>
<g
   id="g28">
</g>
<g
   id="g30">
</g>
<g
   id="g32">
</g>
<g
   id="g34">
</g>
<g
   id="g36">
</g>
<g
   id="g38">
</g>
</svg>
